X: 366
%
U:~=!turn!
T: Marchioness of Huntly
C:
O:Scotland
B:Keith Norman MacDonald : "The Skye collection of the best reels & strathspeys extant" : 1887
Z:Ralph Palmer
R:Strathspey
M:C
L:1/8
K:D dorian
E | {/B,}C<cc>E {/F}G2 G>E | {/B,}C<cc>E {FE}D2 D>E | {/B,}C<cc>E {/^F}G>A{/B}c>d | {AB}c<A {/B}c>E {FE}D2 D :|
(e/f/) | g>c (a/g/)f/e/ g>c (a/g/)f/e/ | g>c (a/g/).f/.e/ {/^c}d2 d(e/f/) | g>c (a/g/)f/e/ {AB}c>ge>g | (f/e/)f/g/ (a/g/)f/e/ d2 de/f/ |
g>c (a/g/)f/e/ g>c (a/g/)f/e/ | g>c (a/g/)f/e/ {/^c}d2 de/f/ | g>ef>d e>ce>d | d/c/B/A/ {AB}c>E D2 {FE}D :|


